X:5561
T:Frost is all over
R:Jig
C:Trad.
M:6/8
L:1/8
K:D
|:"D"AFD DEF|ABd B2A|ABA F2F|"G"GFG "A"E3|
"D"AFD DEF|ABd B2A|ABA F2E|"A"EDD "D"D3:|
|"D"fdd ede|fdd d2e|~f3 def|"G"~g3 "A"efg|
"D"fed "G"B2d|"D"A2d "Bm"F3|"D"ABA "A"F2E|"D"EDD D2A:|
|"D"def edB|AFD E2D|FAA AFA|"Em"Bee "A"edB|
"D"def edB|AFD E2D|FAA AFA|"G"Bdd "D"d2g:|
|:"D"fga agf|"G"gab bag|"D"fga agf|"G"gfg "A"e2g|
"D"fga  agf|"G"gab bag|"D"fga "A"efg|"D"fdc d2z:|
